src/components/content/Icon/functional/work.svg

<svg width="100" height="100" viewBox="0 0 100 100" fill="none" xmlns="http://www.w3.org/2000/svg">
<path d="M78.4978 59.164C78.2938 58.374 77.7878 57.676 77.0998 57.246L74.1258 55.426C73.4358 55.02 72.8078 53.906 72.8078 53.086V47.598C72.7678 46.852 73.3918 45.734 74.0838 45.302L77.0518 43.486C78.5118 42.574 78.9758 40.706 78.1118 39.238L73.8198 31.802C72.9498 30.322 71.0918 29.786 69.5918 30.58L66.5118 32.21C66.5118 32.21 66.4978 32.218 66.4898 32.222C65.8098 32.604 64.5578 32.58 63.8558 32.166L59.1518 29.452C58.4178 29.02 57.7718 27.954 57.7718 27.174V27.138L57.6498 23.678C57.5618 21.99 56.1378 20.616 54.4778 20.616H45.9618C44.2118 20.616 42.7878 22.012 42.7878 23.712L42.7278 27.076C42.6758 27.924 42.0478 28.98 41.3558 29.388L36.6458 32.106L36.6158 32.124C35.9738 32.524 34.7238 32.536 33.9898 32.148L30.9098 30.518C29.4098 29.724 27.5518 30.26 26.6758 31.748L22.3958 39.164C21.5258 40.576 22.0058 42.522 23.4558 43.43L26.4298 45.25C27.1198 45.656 27.7478 46.77 27.7478 47.59V53.026C27.7478 53.804 27.0958 54.948 26.4138 55.374L23.4458 57.19C21.9858 58.102 21.5218 59.97 22.3878 61.44L26.6778 68.812C27.5478 70.292 29.4058 70.828 30.9058 70.034L33.9858 68.404C33.9858 68.404 33.9998 68.396 34.0078 68.392C34.6878 68.01 35.9398 68.034 36.6418 68.448L41.3458 71.162C42.0798 71.594 42.7258 72.66 42.7258 73.44V73.476L42.8478 76.936C42.9358 78.624 44.3598 79.998 46.0198 79.998H54.5358C56.2238 79.998 57.6178 78.654 57.7078 76.938L57.8898 73.614C57.9338 72.764 58.5658 71.696 59.2638 71.288L63.9738 68.57L64.0038 68.552C64.6458 68.15 65.8958 68.14 66.6218 68.524L69.6498 70.158C71.1498 70.952 73.0078 70.416 73.8838 68.928L78.1638 61.512C78.5918 60.818 78.7118 59.984 78.4998 59.164H78.4978ZM76.4538 60.468L76.4358 60.498L72.1518 67.92C71.8198 68.484 71.1458 68.686 70.5898 68.392L67.5618 66.758C66.1898 66.032 64.2138 66.068 62.9558 66.844L58.2518 69.558C56.9618 70.316 55.9678 71.978 55.8878 73.506L55.7058 76.83C55.6758 77.396 55.2538 77.996 54.5298 77.996H46.0138C45.4098 77.996 44.8718 77.462 44.8398 76.846L44.7198 73.42C44.7118 71.936 43.6978 70.226 42.3478 69.432L37.6438 66.718C36.3478 65.956 34.3258 65.922 33.0358 66.642L29.9658 68.268C29.4038 68.566 28.7278 68.364 28.3998 67.804L24.1098 60.432C23.7958 59.9 23.9698 59.222 24.4938 58.892L27.4618 57.076C28.7418 56.276 29.7438 54.498 29.7438 53.028V47.592C29.7438 46.048 28.7538 44.302 27.4538 43.538L24.5018 41.73C23.9918 41.41 23.7978 40.686 24.0958 40.208L24.1138 40.178L28.3978 32.756C28.7298 32.192 29.4058 31.99 29.9678 32.288L33.0478 33.918C34.4218 34.644 36.3958 34.608 37.6538 33.832L42.3578 31.118C43.6478 30.36 44.6418 28.698 44.7218 27.168V27.134L44.7818 23.734C44.7818 23.13 45.3198 22.62 45.9558 22.62H54.4718C55.0758 22.62 55.6138 23.154 55.6458 23.77L55.7658 27.196C55.7738 28.68 56.7878 30.39 58.1378 31.184L62.8418 33.898C64.1378 34.66 66.1598 34.694 67.4498 33.974L70.5198 32.348C71.0818 32.05 71.7558 32.252 72.0858 32.81L76.3778 40.246C76.6918 40.778 76.5178 41.456 75.9918 41.786L73.0238 43.602C71.7098 44.424 70.7398 46.206 70.8018 47.674V53.086C70.8018 54.63 71.7918 56.376 73.0918 57.14L76.0438 58.948C76.2938 59.104 76.4798 59.364 76.5558 59.662C76.6298 59.952 76.5938 60.24 76.4498 60.468H76.4538Z" fill="#0B301A"/>
<path d="M58.9258 42.052C58.8235 42.1343 58.7383 42.236 58.6754 42.3513C58.6124 42.4666 58.5728 42.5932 58.5589 42.7238C58.545 42.8544 58.5569 42.9865 58.5942 43.1125C58.6314 43.2385 58.6931 43.3559 58.7758 43.458C60.3558 45.416 61.1918 47.786 61.1918 50.308C61.1918 56.328 56.2938 61.224 50.2758 61.224C44.2578 61.224 39.3598 56.326 39.3598 50.308C39.3598 44.29 44.2578 39.392 50.2758 39.392C52.2638 39.392 54.2098 39.932 55.9018 40.95C56.3758 41.236 56.9898 41.082 57.2738 40.61C57.5598 40.136 57.4058 39.522 56.9338 39.238C54.9298 38.03 52.6278 37.392 50.2758 37.392C43.1538 37.392 37.3598 43.186 37.3598 50.308C37.3598 57.43 43.1538 63.224 50.2758 63.224C57.3978 63.224 63.1918 57.43 63.1918 50.308C63.1918 47.366 62.1758 44.488 60.3338 42.202C60.2515 42.0996 60.1498 42.0145 60.0345 41.9515C59.9192 41.8885 59.7926 41.849 59.662 41.835C59.5314 41.8211 59.3993 41.8331 59.2733 41.8703C59.1473 41.9075 59.0299 41.9693 58.9278 42.052H58.9258Z" fill="#0B301A"/>
</svg>

<svg xmlns="http://www.w3.org/2000/svg" width="100" height="100" fill="none" viewBox="0 0 100 100"><path fill="#0b301a" d="M78.498 59.164a3.23 3.23 0 0 0-1.398-1.918l-2.974-1.82c-.69-.406-1.318-1.52-1.318-2.34v-5.488c-.04-.746.584-1.864 1.276-2.296l2.968-1.816c1.46-.912 1.924-2.78 1.06-4.248l-4.292-7.436c-.87-1.48-2.728-2.016-4.228-1.222l-3.08 1.63-.022.012c-.68.382-1.932.358-2.634-.056l-4.704-2.714c-.734-.432-1.38-1.498-1.38-2.278v-.036l-.122-3.46c-.088-1.688-1.512-3.062-3.172-3.062h-8.516c-1.75 0-3.174 1.396-3.174 3.096l-.06 3.364c-.052.848-.68 1.904-1.372 2.312l-4.71 2.718-.03.018c-.642.4-1.892.412-2.626.024l-3.08-1.63c-1.5-.794-3.358-.258-4.234 1.23l-4.28 7.416c-.87 1.412-.39 3.358 1.06 4.266l2.974 1.82c.69.406 1.318 1.52 1.318 2.34v5.436c0 .778-.652 1.922-1.334 2.348l-2.968 1.816c-1.46.912-1.924 2.78-1.058 4.25l4.29 7.372c.87 1.48 2.728 2.016 4.228 1.222l3.08-1.63.022-.012c.68-.382 1.932-.358 2.634.056l4.704 2.714c.734.432 1.38 1.498 1.38 2.278v.036l.122 3.46c.088 1.688 1.512 3.062 3.172 3.062h8.516c1.688 0 3.082-1.344 3.172-3.06l.182-3.324c.044-.85.676-1.918 1.374-2.326l4.71-2.718.03-.018c.642-.402 1.892-.412 2.618-.028l3.028 1.634c1.5.794 3.358.258 4.234-1.23l4.28-7.416a3 3 0 0 0 .336-2.348zm-2.044 1.304-.018.03-4.284 7.422c-.332.564-1.006.766-1.562.472l-3.028-1.634c-1.372-.726-3.348-.69-4.606.086l-4.704 2.714c-1.29.758-2.284 2.42-2.364 3.948l-.182 3.324c-.03.566-.452 1.166-1.176 1.166h-8.516c-.604 0-1.142-.534-1.174-1.15l-.12-3.426c-.008-1.484-1.022-3.194-2.372-3.988l-4.704-2.714c-1.296-.762-3.318-.796-4.608-.076l-3.07 1.626c-.562.298-1.238.096-1.566-.464l-4.29-7.372a1.136 1.136 0 0 1 .384-1.54l2.968-1.816c1.28-.8 2.282-2.578 2.282-4.048v-5.436c0-1.544-.99-3.29-2.29-4.054l-2.952-1.808c-.51-.32-.704-1.044-.406-1.522l.018-.03 4.284-7.422c.332-.564 1.008-.766 1.57-.468l3.08 1.63c1.374.726 3.348.69 4.606-.086l4.704-2.714c1.29-.758 2.284-2.42 2.364-3.95v-.034l.06-3.4c0-.604.538-1.114 1.174-1.114h8.516c.604 0 1.142.534 1.174 1.15l.12 3.426c.008 1.484 1.022 3.194 2.372 3.988l4.704 2.714c1.296.762 3.318.796 4.608.076l3.07-1.626c.562-.298 1.236-.096 1.566.462l4.292 7.436c.314.532.14 1.21-.386 1.54l-2.968 1.816c-1.314.822-2.284 2.604-2.222 4.072v5.412c0 1.544.99 3.29 2.29 4.054l2.952 1.808c.25.156.436.416.512.714.074.29.038.578-.106.806z"/><path fill="#0b301a" d="M58.926 42.052a.997.997 0 0 0-.15 1.406 10.8 10.8 0 0 1 2.416 6.85c0 6.02-4.898 10.916-10.916 10.916S39.36 56.326 39.36 50.308s4.898-10.916 10.916-10.916c1.988 0 3.934.54 5.626 1.558a.999.999 0 1 0 1.032-1.712 12.9 12.9 0 0 0-6.658-1.846c-7.122 0-12.916 5.794-12.916 12.916s5.794 12.916 12.916 12.916 12.916-5.794 12.916-12.916a12.96 12.96 0 0 0-2.858-8.106 1 1 0 0 0-1.406-.15z"/></svg>
